img/icons/phone.svg

<svg width="24" height="24" viewBox="0 0 24 24" fill="none" xmlns="http://www.w3.org/2000/svg">
<g clip-path="url(#clip0_338:52)">
<path d="M12 0C18.6274 0 24 5.37258 24 12C24 18.6274 18.6274 24 12 24C5.37258 24 -3.8147e-06 18.6274 -3.8147e-06 12C-3.8147e-06 5.37258 5.37258 0 12 0ZM16.3125 4.7666C16.0653 4.75202 15.8418 4.8998 15.6724 5.1621L14.0317 8.27342C13.859 8.6421 13.9572 9.03686 14.2148 9.30028L14.9663 10.0517C15.0127 10.1153 15.0432 10.1869 15.0439 10.2656C14.7558 11.3811 13.8816 12.4101 13.1103 13.1177C12.3391 13.8253 11.5101 14.7833 10.4341 15.0102C10.3011 15.0473 10.1381 15.0606 10.043 14.9722L9.16992 14.083C8.86856 13.8546 8.4326 13.7439 8.11084 13.9307H8.0962L5.13578 15.6782C4.70122 15.9506 4.6562 16.4771 4.96732 16.7974L7.00634 18.8203C7.30746 19.1291 7.7075 19.2329 8.09616 19.2334C9.81512 19.1819 11.4393 18.3382 12.7734 17.4712C14.9632 15.8781 16.9719 13.9023 18.2329 11.5151C18.7165 10.5141 19.2847 9.23694 19.2305 8.11966C19.2256 7.69934 19.1119 7.28756 18.8159 7.01664L16.7768 4.97758C16.618 4.84242 16.4609 4.77536 16.3125 4.7666Z" fill="#17982D"/>
</g>
<defs>
<clipPath id="clip0_338:52">
<rect width="24" height="24" fill="white"/>
</clipPath>
</defs>
</svg>

<svg width="24" height="24" fill="none" xmlns="http://www.w3.org/2000/svg"><g clip-path="url(#clip0_338:52)"><path d="M12 0c6.627 0 12 5.373 12 12s-5.373 12-12 12S0 18.627 0 12 5.373 0 12 0zm4.313 4.767c-.248-.015-.471.133-.64.395l-1.641 3.111a.903.903 0 00.183 1.027l.751.752a.368.368 0 01.078.214c-.288 1.115-1.162 2.144-1.934 2.852-.77.707-1.6 1.665-2.676 1.892-.133.037-.296.05-.391-.038l-.873-.889c-.301-.228-.737-.34-1.06-.152h-.014l-2.96 1.747c-.435.273-.48.8-.169 1.12l2.04 2.022c.3.31.7.413 1.09.413 1.718-.051 3.342-.895 4.676-1.762 2.19-1.593 4.199-3.569 5.46-5.956.483-1 1.052-2.278.997-3.395-.004-.42-.118-.832-.414-1.103l-2.04-2.04a.797.797 0 00-.463-.21z" fill="#17982D"/></g><defs><clipPath id="clip0_338:52"><path fill="#fff" d="M0 0h24v24H0z"/></clipPath></defs></svg>
